docgen/assets/img/InstantSearch-iOS.svg

<?xml version="1.0" encoding="UTF-8"?>
<svg width="245px" height="51px" viewBox="0 0 245 51" version="1.1" xmlns="http://www.w3.org/2000/svg" xmlns:xlink="http://www.w3.org/1999/xlink">
    <!-- Generator: Sketch 45.2 (43514) - http://www.bohemiancoding.com/sketch -->
    <title>InstantSearch-iOS</title>
    <desc>Created with Sketch.</desc>
    <defs>
        <linearGradient x1="100%" y1="80.6083255%" x2="-29.896%" y2="19.3916745%" id="linearGradient-1">
            <stop stop-color="#D8EE34" offset="0%"></stop>
            <stop stop-color="#02ADE6" offset="60.313%"></stop>
            <stop stop-color="#033DF1" offset="100%"></stop>
        </linearGradient>
        <linearGradient x1="42.4428508%" y1="121.561%" x2="57.5230002%" y2="8.499%" id="linearGradient-2">
            <stop stop-color="#201C38" offset="0%"></stop>
            <stop stop-color="#3E396B" offset="100%"></stop>
        </linearGradient>
    </defs>
    <g id="Page-1" stroke="none" stroke-width="1" fill="none" fill-rule="evenodd">
        <g id="InstantSearch-iOS">
            <path d="M82.688,34.648 C82.064,34.648 81.536,35 81.536,35.8 L81.536,36.808 L83.76,36.808 L83.76,38.184 L81.536,38.184 L81.536,45 L79.712,45 L79.712,38.184 L78.592,38.184 L78.592,36.808 L79.712,36.808 L79.712,35.976 C79.712,33.992 81.168,33.048 82.64,33.048 C83.328,33.048 84.016,33.24 84.56,33.64 L83.856,35.048 C83.504,34.792 83.072,34.648 82.688,34.648 Z M88.336,36.424 C90.96,36.424 92.768,38.168 92.768,40.728 C92.768,43.304 90.96,45.064 88.336,45.064 C85.696,45.064 83.888,43.304 83.888,40.728 C83.888,38.168 85.696,36.424 88.336,36.424 Z M88.336,37.992 C86.8,37.992 85.728,39.128 85.728,40.76 C85.728,42.408 86.8,43.528 88.336,43.528 C89.856,43.528 90.928,42.408 90.928,40.76 C90.928,39.128 89.856,37.992 88.336,37.992 Z M96.528,38.184 L96.528,36.488 L94.688,36.488 L94.688,45 L96.528,45 L96.528,40.552 C96.672,39.096 97.76,38.088 99.472,38.184 L99.472,36.424 C98.128,36.424 97.104,37.032 96.528,38.184 Z M106.704,32.952 C106.096,32.952 105.632,33.416 105.632,34.056 C105.632,34.68 106.096,35.144 106.704,35.144 C107.312,35.144 107.776,34.68 107.776,34.056 C107.776,33.416 107.312,32.952 106.704,32.952 Z M105.792,36.488 L105.792,45 L107.616,45 L107.616,36.488 L105.792,36.488 Z M115.456,33.752 C118.8,33.752 121.392,36.2 121.392,39.4 C121.392,42.6 118.8,45.08 115.456,45.08 C112.112,45.08 109.52,42.6 109.52,39.4 C109.52,36.184 112.112,33.752 115.456,33.752 Z M115.472,35.448 C113.264,35.448 111.44,37.176 111.44,39.4 C111.44,41.624 113.28,43.384 115.472,43.384 C117.664,43.384 119.456,41.624 119.456,39.4 C119.456,37.176 117.664,35.448 115.472,35.448 Z M130.224,36.536 L131.008,34.872 C129.968,34.184 128.544,33.72 127.088,33.72 C124.656,33.72 123.008,34.92 123.008,36.84 C123.008,40.824 129.056,39.432 129.056,41.928 C129.056,42.792 128.272,43.288 126.96,43.288 C125.76,43.288 124.32,42.712 123.168,41.656 L122.352,43.288 C123.504,44.344 125.168,45.064 126.928,45.064 C129.392,45.064 131.152,43.832 131.152,41.832 C131.168,37.8 125.12,39.112 125.12,36.664 C125.12,35.912 125.84,35.496 126.944,35.496 C127.792,35.496 129.008,35.8 130.224,36.536 Z" id="for-iOS" fill="#8994C6"></path>
            <path d="M80.064,4.2 L80.064,21 L83.28,21 L83.28,4.2 L80.064,4.2 Z M95.016,8.04 C92.928,8.064 91.32,8.856 90.408,10.56 L90.408,8.16 L87.288,8.16 L87.288,21 L90.408,21 L90.408,14.688 C90.408,12.576 91.656,11.016 93.768,10.992 C95.544,10.992 96.624,12.096 96.624,13.896 L96.624,21 L99.768,21 L99.768,12.984 C99.768,9.936 97.968,8.04 95.016,8.04 Z M110.88,11.64 L112.008,9.384 C110.736,8.52 108.984,8.016 107.304,8.016 C104.712,8.016 102.456,9.24 102.456,11.88 C102.432,16.44 109.128,15.144 109.128,17.52 C109.128,18.36 108.312,18.72 107.232,18.72 C105.84,18.72 104.064,18.144 102.888,17.136 L101.808,19.32 C103.152,20.496 105.168,21.12 107.112,21.12 C109.848,21.12 112.176,19.848 112.176,17.232 C112.176,12.624 105.384,13.752 105.384,11.592 C105.384,10.8 106.104,10.464 107.112,10.464 C108.216,10.464 109.632,10.896 110.88,11.64 Z M121.632,17.856 C120.936,18.192 120.336,18.384 119.808,18.384 C118.968,18.384 118.464,17.976 118.464,16.752 L118.464,10.968 L122.136,10.968 L122.136,8.688 L118.464,8.688 L118.464,5.16 L115.368,5.16 L115.368,8.688 L113.544,8.688 L113.568,10.968 L115.368,10.968 L115.368,17.304 C115.368,19.944 117.048,21.144 119.136,21.144 C120.264,21.144 121.368,20.808 122.352,20.208 L121.632,17.856 Z M135.456,21 L132.384,21 L132.384,19.44 C131.496,20.568 130.056,21.144 128.232,21.144 C125.472,21.144 123.744,19.44 123.744,17.16 C123.744,14.784 125.496,13.32 128.616,13.296 L132.36,13.296 L132.36,12.96 C132.36,11.472 131.376,10.584 129.456,10.584 C128.256,10.584 126.96,10.992 125.64,11.784 L124.512,9.624 C126.36,8.592 127.8,8.04 130.152,8.04 C133.512,8.04 135.408,9.744 135.432,12.6 L135.456,21 Z M128.976,18.744 C130.776,18.744 132.192,17.784 132.36,16.536 L132.36,15.384 L129.12,15.384 C127.464,15.384 126.696,15.84 126.696,16.968 C126.696,18.048 127.56,18.744 128.976,18.744 Z M146.688,8.04 C144.6,8.064 142.992,8.856 142.08,10.56 L142.08,8.16 L138.96,8.16 L138.96,21 L142.08,21 L142.08,14.688 C142.08,12.576 143.328,11.016 145.44,10.992 C147.216,10.992 148.296,12.096 148.296,13.896 L148.296,21 L151.44,21 L151.44,12.984 C151.44,9.936 149.64,8.04 146.688,8.04 Z M161.736,17.856 C161.04,18.192 160.44,18.384 159.912,18.384 C159.072,18.384 158.568,17.976 158.568,16.752 L158.568,10.968 L162.24,10.968 L162.24,8.688 L158.568,8.688 L158.568,5.16 L155.472,5.16 L155.472,8.688 L153.648,8.688 L153.672,10.968 L155.472,10.968 L155.472,17.304 C155.472,19.944 157.152,21.144 159.24,21.144 C160.368,21.144 161.472,20.808 162.456,20.208 L161.736,17.856 Z M175.584,8.616 L176.88,5.832 C175.272,4.776 173.04,4.056 170.808,4.056 C167.04,4.056 164.52,5.928 164.52,8.856 C164.52,14.832 173.544,12.84 173.544,16.344 C173.544,17.52 172.464,18.192 170.664,18.192 C168.864,18.192 166.584,17.256 164.856,15.72 L163.512,18.432 C165.312,20.04 167.928,21.12 170.616,21.12 C174.312,21.12 177.048,19.296 177.048,16.152 C177.072,10.128 168.048,11.976 168.048,8.568 C168.048,7.536 169.032,6.984 170.544,6.984 C171.84,6.984 173.784,7.536 175.584,8.616 Z M185.328,8.064 C189.84,8.064 191.784,11.016 191.472,15.672 L181.992,15.672 C182.4,17.496 183.792,18.6 185.664,18.6 C186.984,18.6 188.208,18.096 189.12,17.16 L190.8,18.912 C189.528,20.304 187.656,21.12 185.4,21.12 C181.416,21.12 178.8,18.48 178.8,14.616 C178.8,10.704 181.488,8.064 185.328,8.064 Z M181.92,13.584 L188.64,13.584 C188.568,11.688 187.296,10.488 185.352,10.488 C183.504,10.488 182.208,11.688 181.92,13.584 Z M204.84,21 L201.768,21 L201.768,19.44 C200.88,20.568 199.44,21.144 197.616,21.144 C194.856,21.144 193.128,19.44 193.128,17.16 C193.128,14.784 194.88,13.32 198,13.296 L201.744,13.296 L201.744,12.96 C201.744,11.472 200.76,10.584 198.84,10.584 C197.64,10.584 196.344,10.992 195.024,11.784 L193.896,9.624 C195.744,8.592 197.184,8.04 199.536,8.04 C202.896,8.04 204.792,9.744 204.816,12.6 L204.84,21 Z M198.36,18.744 C200.16,18.744 201.576,17.784 201.744,16.536 L201.744,15.384 L198.504,15.384 C196.848,15.384 196.08,15.84 196.08,16.968 C196.08,18.048 196.944,18.744 198.36,18.744 Z M211.464,10.632 L211.464,8.16 L208.344,8.16 L208.344,21 L211.464,21 L211.464,14.808 C211.464,12.48 213.12,10.896 215.832,11.064 L215.832,8.04 C213.84,8.064 212.328,8.952 211.464,10.632 Z M226.848,12.216 L228.744,10.416 C227.592,8.928 225.72,8.064 223.368,8.064 C219.504,8.064 216.84,10.704 216.84,14.616 C216.84,18.48 219.48,21.12 223.32,21.12 C225.84,21.12 227.76,20.16 228.888,18.528 L226.944,16.92 C226.176,17.928 224.976,18.432 223.488,18.432 C221.424,18.432 219.984,16.896 219.984,14.592 C219.984,12.336 221.424,10.8 223.488,10.8 C224.904,10.8 226.032,11.328 226.848,12.216 Z M239.424,8.04 C237.312,8.064 235.704,8.856 234.792,10.608 L234.792,3.192 L231.672,3.192 L231.672,21 L234.792,21 L234.792,14.688 C234.792,12.576 236.064,11.016 238.176,10.992 C239.952,10.992 241.032,12.096 241.032,13.896 L241.032,21 L244.176,21 L244.176,12.984 C244.176,9.936 242.376,8.04 239.424,8.04 Z" id="InstantSearch" fill="#3E396B"></path>
            <g id="Group-3" fill-rule="nonzero">
                <path d="M27.4367816,22.2888889 C28.7011494,22.2888889 29.9022989,22.037037 31.1034483,21.6592593 L33.1264368,25.1222222 L34.5172414,27.5148148 C34.8965517,28.2074074 35.591954,28.5851852 36.3505747,28.5851852 C36.7298851,28.5851852 37.045977,28.5222222 37.4252874,28.3333333 C38.4367816,27.7666667 38.7528736,26.4444444 38.183908,25.437037 L36.7931034,23.0444444 L34.7701149,19.5185185 C37.1091954,17.5037037 38.6264368,14.4814815 38.6264368,11.1444444 C38.6264368,5.03703704 33.6321839,0.062962963 27.5,0.062962963 C21.3678161,0.062962963 16.3103448,5.03703704 16.3103448,11.2074074 C16.3103448,17.3777778 21.3045977,22.2888889 27.4367816,22.2888889 Z M27.4367816,4.28148148 C31.2298851,4.28148148 34.3275862,7.36666667 34.3275862,11.1444444 C34.3275862,14.9222222 31.2298851,18.0074074 27.4367816,18.0074074 C23.6436782,18.0074074 20.545977,14.9222222 20.545977,11.1444444 C20.545977,7.36666667 23.6436782,4.28148148 27.4367816,4.28148148 Z" id="Shape" fill="url(#linearGradient-1)"></path>
                <path d="M43.8103448,28.2074074 C38.3735632,28.2074074 33.8850575,32.1111111 32.8735632,37.2111111 L28.8908046,37.2111111 L26.1091954,37.2111111 C24.9712644,37.2111111 24.0229885,38.1555556 24.0229885,39.2888889 C24.0229885,40.4222222 24.9712644,41.3666667 26.1091954,41.3666667 L28.8908046,41.3666667 L32.8735632,41.3666667 C33.8850575,46.4666667 38.3735632,50.3703704 43.8103448,50.3703704 C49.9425287,50.3703704 54.9367816,45.3962963 54.9367816,39.2888889 C54.9367816,33.1814815 49.9425287,28.2074074 43.8103448,28.2074074 Z M43.8103448,46.2148148 C40.0172414,46.2148148 36.9195402,43.1296296 36.9195402,39.3518519 C36.9195402,35.5740741 40.0172414,32.4888889 43.8103448,32.4888889 C47.6034483,32.4888889 50.7011494,35.5740741 50.7011494,39.3518519 C50.7011494,43.1296296 47.6034483,46.2148148 43.8103448,46.2148148 Z M18.4597701,30.9777778 C20.7988506,32.9925926 22.316092,35.9518519 22.2528736,39.3518519 C22.2528736,45.4592593 17.2586207,50.4333333 11.1264368,50.4333333 C4.99425287,50.4333333 0,45.5222222 0,39.3518519 C0,33.1814815 4.99425287,28.2074074 11.1264368,28.2074074 C12.454023,28.2074074 13.6551724,28.4592593 14.7931034,28.837037 L16.816092,25.3740741 L18.2068966,22.9814815 C18.8390805,21.9740741 20.1034483,21.6592593 21.1149425,22.2259259 C22.1264368,22.8555556 22.4425287,24.1148148 21.8735632,25.1222222 L20.4827586,27.5148148 L18.4597701,30.9777778 Z M11.1264368,46.2148148 C14.9827586,46.2148148 18.0804598,43.1296296 18.0172414,39.3518519 C18.0172414,35.5740741 14.9195402,32.4888889 11.1264368,32.4888889 C7.33333333,32.4888889 4.23563218,35.5740741 4.23563218,39.3518519 C4.23563218,43.1296296 7.33333333,46.2148148 11.1264368,46.2148148 Z" id="Shape" fill="url(#linearGradient-2)"></path>
            </g>
        </g>
    </g>
</svg>

<svg width="245" height="51" viewBox="0 0 245 51" xmlns="http://www.w3.org/2000/svg"><title>InstantSearch-iOS</title><defs><linearGradient x1="100%" y1="19.43%" x2="0%" y2="19.392%" id="a"><stop stop-color="#A4A9B3" offset="0%"/><stop stop-color="#22283B" offset="100%"/></linearGradient><linearGradient x1="42.443%" y1="121.561%" x2="57.523%" y2="8.499%" id="b"><stop stop-color="#201C38" offset="0%"/><stop stop-color="#3E396B" offset="100%"/></linearGradient></defs><g fill="none" fill-rule="evenodd"><path d="M82.688 34.648c-.624 0-1.152.352-1.152 1.152v1.008h2.224v1.376h-2.224V45h-1.824v-6.816h-1.12v-1.376h1.12v-.832c0-1.984 1.456-2.928 2.928-2.928.688 0 1.376.192 1.92.592l-.704 1.408a2.057 2.057 0 0 0-1.168-.4zm5.648 1.776c2.624 0 4.432 1.744 4.432 4.304 0 2.576-1.808 4.336-4.432 4.336-2.64 0-4.448-1.76-4.448-4.336 0-2.56 1.808-4.304 4.448-4.304zm0 1.568c-1.536 0-2.608 1.136-2.608 2.768 0 1.648 1.072 2.768 2.608 2.768 1.52 0 2.592-1.12 2.592-2.768 0-1.632-1.072-2.768-2.592-2.768zm8.192.192v-1.696h-1.84V45h1.84v-4.448c.144-1.456 1.232-2.464 2.944-2.368v-1.76c-1.344 0-2.368.608-2.944 1.76zm10.176-5.232c-.608 0-1.072.464-1.072 1.104 0 .624.464 1.088 1.072 1.088.608 0 1.072-.464 1.072-1.088 0-.64-.464-1.104-1.072-1.104zm-.912 3.536V45h1.824v-8.512h-1.824zm9.664-2.736c3.344 0 5.936 2.448 5.936 5.648 0 3.2-2.592 5.68-5.936 5.68s-5.936-2.48-5.936-5.68c0-3.216 2.592-5.648 5.936-5.648zm.016 1.696c-2.208 0-4.032 1.728-4.032 3.952s1.84 3.984 4.032 3.984a3.974 3.974 0 0 0 3.984-3.984c0-2.224-1.792-3.952-3.984-3.952zm14.752 1.088l.784-1.664c-1.04-.688-2.464-1.152-3.92-1.152-2.432 0-4.08 1.2-4.08 3.12 0 3.984 6.048 2.592 6.048 5.088 0 .864-.784 1.36-2.096 1.36-1.2 0-2.64-.576-3.792-1.632l-.816 1.632a6.889 6.889 0 0 0 4.576 1.776c2.464 0 4.224-1.232 4.224-3.232.016-4.032-6.032-2.72-6.032-5.168 0-.752.72-1.168 1.824-1.168.848 0 2.064.304 3.28 1.04z" fill="#8994C6"/><path d="M80.064 4.2V21h3.216V4.2h-3.216zm14.952 3.84c-2.088.024-3.696.816-4.608 2.52v-2.4h-3.12V21h3.12v-6.312c0-2.112 1.248-3.672 3.36-3.696 1.776 0 2.856 1.104 2.856 2.904V21h3.144v-8.016c0-3.048-1.8-4.944-4.752-4.944zm15.864 3.6l1.128-2.256c-1.272-.864-3.024-1.368-4.704-1.368-2.592 0-4.848 1.224-4.848 3.864-.024 4.56 6.672 3.264 6.672 5.64 0 .84-.816 1.2-1.896 1.2-1.392 0-3.168-.576-4.344-1.584l-1.08 2.184c1.344 1.176 3.36 1.8 5.304 1.8 2.736 0 5.064-1.272 5.064-3.888 0-4.608-6.792-3.48-6.792-5.64 0-.792.72-1.128 1.728-1.128 1.104 0 2.52.432 3.768 1.176zm10.752 6.216c-.696.336-1.296.528-1.824.528-.84 0-1.344-.408-1.344-1.632v-5.784h3.672v-2.28h-3.672V5.16h-3.096v3.528h-1.824l.024 2.28h1.8v6.336c0 2.64 1.68 3.84 3.768 3.84 1.128 0 2.232-.336 3.216-.936l-.72-2.352zM135.456 21h-3.072v-1.56c-.888 1.128-2.328 1.704-4.152 1.704-2.76 0-4.488-1.704-4.488-3.984 0-2.376 1.752-3.84 4.872-3.864h3.744v-.336c0-1.488-.984-2.376-2.904-2.376-1.2 0-2.496.408-3.816 1.2l-1.128-2.16c1.848-1.032 3.288-1.584 5.64-1.584 3.36 0 5.256 1.704 5.28 4.56l.024 8.4zm-6.48-2.256c1.8 0 3.216-.96 3.384-2.208v-1.152h-3.24c-1.656 0-2.424.456-2.424 1.584 0 1.08.864 1.776 2.28 1.776zM146.688 8.04c-2.088.024-3.696.816-4.608 2.52v-2.4h-3.12V21h3.12v-6.312c0-2.112 1.248-3.672 3.36-3.696 1.776 0 2.856 1.104 2.856 2.904V21h3.144v-8.016c0-3.048-1.8-4.944-4.752-4.944zm15.048 9.816c-.696.336-1.296.528-1.824.528-.84 0-1.344-.408-1.344-1.632v-5.784h3.672v-2.28h-3.672V5.16h-3.096v3.528h-1.824l.024 2.28h1.8v6.336c0 2.64 1.68 3.84 3.768 3.84 1.128 0 2.232-.336 3.216-.936l-.72-2.352zm13.848-9.24l1.296-2.784c-1.608-1.056-3.84-1.776-6.072-1.776-3.768 0-6.288 1.872-6.288 4.8 0 5.976 9.024 3.984 9.024 7.488 0 1.176-1.08 1.848-2.88 1.848-1.8 0-4.08-.936-5.808-2.472l-1.344 2.712c1.8 1.608 4.416 2.688 7.104 2.688 3.696 0 6.432-1.824 6.432-4.968.024-6.024-9-4.176-9-7.584 0-1.032.984-1.584 2.496-1.584 1.296 0 3.24.552 5.04 1.632zm9.744-.552c4.512 0 6.456 2.952 6.144 7.608h-9.48c.408 1.824 1.8 2.928 3.672 2.928 1.32 0 2.544-.504 3.456-1.44l1.68 1.752c-1.272 1.392-3.144 2.208-5.4 2.208-3.984 0-6.6-2.64-6.6-6.504 0-3.912 2.688-6.552 6.528-6.552zm-3.408 5.52h6.72c-.072-1.896-1.344-3.096-3.288-3.096-1.848 0-3.144 1.2-3.432 3.096zM204.84 21h-3.072v-1.56c-.888 1.128-2.328 1.704-4.152 1.704-2.76 0-4.488-1.704-4.488-3.984 0-2.376 1.752-3.84 4.872-3.864h3.744v-.336c0-1.488-.984-2.376-2.904-2.376-1.2 0-2.496.408-3.816 1.2l-1.128-2.16c1.848-1.032 3.288-1.584 5.64-1.584 3.36 0 5.256 1.704 5.28 4.56l.024 8.4zm-6.48-2.256c1.8 0 3.216-.96 3.384-2.208v-1.152h-3.24c-1.656 0-2.424.456-2.424 1.584 0 1.08.864 1.776 2.28 1.776zm13.104-8.112V8.16h-3.12V21h3.12v-6.192c0-2.328 1.656-3.912 4.368-3.744V8.04c-1.992.024-3.504.912-4.368 2.592zm15.384 1.584l1.896-1.8c-1.152-1.488-3.024-2.352-5.376-2.352-3.864 0-6.528 2.64-6.528 6.552 0 3.864 2.64 6.504 6.48 6.504 2.52 0 4.44-.96 5.568-2.592l-1.944-1.608c-.768 1.008-1.968 1.512-3.456 1.512-2.064 0-3.504-1.536-3.504-3.84 0-2.256 1.44-3.792 3.504-3.792 1.416 0 2.544.528 3.36 1.416zm12.576-4.176c-2.112.024-3.72.816-4.632 2.568V3.192h-3.12V21h3.12v-6.312c0-2.112 1.272-3.672 3.384-3.696 1.776 0 2.856 1.104 2.856 2.904V21h3.144v-8.016c0-3.048-1.8-4.944-4.752-4.944z" fill="#3E396B"/><path d="M27.437 22.289c1.264 0 2.465-.252 3.666-.63l2.023 3.463 1.391 2.393c.38.692 1.075 1.07 1.834 1.07.379 0 .695-.063 1.074-.252 1.012-.566 1.328-1.889.759-2.896l-1.39-2.393-2.024-3.525c2.34-2.015 3.856-5.038 3.856-8.375C38.626 5.037 33.632.063 27.5.063S16.31 5.037 16.31 11.207 21.305 22.29 27.437 22.29zm0-18.008c3.793 0 6.89 3.086 6.89 6.863 0 3.778-3.097 6.863-6.89 6.863-3.793 0-6.891-3.085-6.891-6.863 0-3.777 3.098-6.863 6.89-6.863z" fill="url(#a)" fill-rule="nonzero"/><path d="M43.81 28.207c-5.436 0-9.925 3.904-10.936 9.004H26.109c-1.138 0-2.086.945-2.086 2.078s.948 2.078 2.086 2.078H32.874c1.011 5.1 5.5 9.003 10.936 9.003 6.133 0 11.127-4.974 11.127-11.081 0-6.108-4.994-11.082-11.127-11.082zm0 18.008c-3.793 0-6.89-3.085-6.89-6.863 0-3.778 3.097-6.863 6.89-6.863 3.793 0 6.891 3.085 6.891 6.863 0 3.778-3.098 6.863-6.89 6.863zM18.46 30.978c2.339 2.015 3.856 4.974 3.793 8.374 0 6.107-4.994 11.081-11.127 11.081C4.994 50.433 0 45.523 0 39.352c0-6.17 4.994-11.145 11.126-11.145 1.328 0 2.53.252 3.667.63l2.023-3.463 1.39-2.393a2.162 2.162 0 0 1 2.909-.755c1.011.63 1.328 1.889.759 2.896l-1.391 2.393-2.023 3.463zm-7.334 15.237c3.857 0 6.954-3.085 6.891-6.863 0-3.778-3.097-6.863-6.89-6.863-3.794 0-6.891 3.085-6.891 6.863 0 3.778 3.097 6.863 6.89 6.863z" fill="url(#b)" fill-rule="nonzero"/></g></svg>
